!!!OTL: 1609. Geographie der Handwerksburschen.
!!!ARE: Europa, Mitteleuropa, Deutschland, Hessen, Frankfurt a.M.
!!!SCT: E1609
!!!TXL: @@DE
!!!YEM: Copyright 1995, estate of Helmut Schaffrath.
**kern	**text
*ICvox	*
*M3/4	*
*k[f#]	*
*G:	*
=1	=1
!LO:TX:a:t=Heiter.	!
!LO:TX:a:t=Mel. aus der Gegend von Frankfurt a. M.	!
{(8g	Seid
8b/)	nur
4dd	luſtig
8ddL	und
8ccJ	.
=2	=2
(4b	fröh-
4cc)	.
4dd}	-lich,
=3	=3
{4dd	ihr
8eeL	Hand-
8ddJ	.
(8cc	-werks-
8b)	.
=4	=4
(4a	-ge-
4f#)	-ſel-
4d}	-len,
=5	=5
{8dd	denn
8ee	es
8dd	kommt
8cc	die
4b	Ʒeit,
=6	=6
8dd	die
8ee	uns
8dd	all
8cc	er-
4b}	-freut,
=7	=7
{4a	ſie
4a	iſt
4a	ſchon
=8	=8
(4b	da,
2dd)}	.
=9	=9
{(8ddqq	.
4cc)	ſie
4b/	iſt
4a	ſchon
=10	=10
2g	da.
4r}	.
==	==
!!!AGN: Staende -, Handwerker -, Gesellen - Lied, Wanderschaft
!!!ONB: ESAC (Essen Associative Code) Database: ERK3
!!!AMT: simple triple
!!!AIN: vox
!!!EED: Helmut Schaffrath
!!!EEV: 1.0
!!!GTL: Staendelieder (Berufslieder). 8. Handwerkerlieder.
!!!URL-scan: https://rosdok.uni-rostock.de/mcrviewer/recordIdentifier/rosdok_ppn745177999/iview2/phys_0433.iview2?x=-449.8344612962892&y=505.85930281016044&scale=0.47549036216460333&rotation=0&layout=singlePageLayout
!!!ENC: Anna Maria Matuszewska
!!!EEV: 2025/08/01
*-	*-
